X: 43174
T: Wired To The Moon
R: mazurka
M: 3/4
K: Eminor
BAB g2e|ga ge de|BAB g2e|ga ge d2|
BAB g2e|ga ge de|edB d2e|GA BA AA:|
AGA e2d|dB de G2|AGA e2d|dB de g2|
AGA e2d|dB de g2|age g2e|de BA AA:|

